X:3834
T:Danza (Teberga 6)
C:Trad
Z:Teberga
M:3/8
L:1/8
Q:3/8=60
K:F
|: FFF|FGA|B2 B|ccc|BAG|A2 A|BBA|GFE|G2 G|BBA|GFE|F2 F-|F3 :|
